icons/1_Primary/pCloud.svg

<svg xmlns="http://www.w3.org/2000/svg" width="1024" height="1024" fill="none">
   <g clip-path="url(#a)">
      <path fill="#96DFD3" d="M512 1024c282.77 0 512-229.23 512-512S794.77 0 512 0 0 229.23 0 512s229.23 512 512 512Z"/>
      <path fill="#fff" d="M550.35 470.76a16.571 16.571 0 0 1-16.56 16.57h-41.57V454.2h41.56a16.559 16.559 0 0 1 16.57 16.56Zm92.14 17.67a132.002 132.002 0 0 1-261.464 25.752A132 132 0 0 1 510.49 356.43a132.004 132.004 0 0 1 93.332 38.665 132.004 132.004 0 0 1 38.658 93.335h.01Zm-52.81-17.69a56 56 0 0 0-56.06-56h-62.5A21.28 21.28 0 0 0 449.83 436v115.42a21.279 21.279 0 1 0 42.56 0v-24.56h41.22v-.08a56.05 56.05 0 0 0 56.06-56.04h.01ZM805.06 583.1a94.06 94.06 0 0 1-92.18 94v.16H358.36a139.36 139.36 0 0 1-17.51-277.62 187.316 187.316 0 0 0-17.08 78c0 1.52.14 3 .18 4.53 3.58-100.84 86.4-181.49 188.1-181.49 102 0 185 81.11 188.11 182.33.07-1.79.16-3.57.16-5.37a185.39 185.39 0 0 0-16.94-77.76 78.531 78.531 0 0 1 82.271 108.398 78.533 78.533 0 0 1-36.571 39.402 79.173 79.173 0 0 0 40.82-37.94 93.918 93.918 0 0 1 35.16 73.36Zm-143-94.45a151.531 151.531 0 0 0-258.696-107.12 151.527 151.527 0 0 0-32.817 165.148A151.528 151.528 0 0 0 510.57 640.19a151.517 151.517 0 0 0 139.989-93.543 151.522 151.522 0 0 0 11.531-57.987l-.03-.01Z"/>
   </g>
   <defs>
      <clipPath id="a">
         <path fill="#fff" d="M0 0h1024v1024H0z"/>
      </clipPath>
   </defs>
</svg>

<svg width="1024" height="1024" viewBox="0 0 1024 1024" fill="none" xmlns="http://www.w3.org/2000/svg">
<g clip-path="url(#clip0_2_3105)">
<path d="M512 1024C794.77 1024 1024 794.77 1024 512C1024 229.23 794.77 0 512 0C229.23 0 0 229.23 0 512C0 794.77 229.23 1024 512 1024Z" fill="#96DFD3"/>
<path d="M550.35 470.76C550.35 475.153 548.606 479.366 545.5 482.473C542.395 485.58 538.183 487.327 533.79 487.33H492.22V454.2H533.78C535.955 454.199 538.11 454.626 540.12 455.458C542.131 456.289 543.957 457.509 545.496 459.047C547.035 460.585 548.256 462.411 549.088 464.42C549.921 466.43 550.35 468.584 550.35 470.76ZM642.49 488.43C642.49 514.537 634.748 540.058 620.244 561.765C605.74 583.472 585.124 600.391 561.004 610.382C536.884 620.373 510.343 622.987 484.738 617.894C459.132 612.8 435.612 600.229 417.152 581.768C398.691 563.307 386.119 539.787 381.026 514.182C375.933 488.576 378.547 462.036 388.538 437.916C398.529 413.796 415.447 393.18 437.155 378.676C458.862 364.172 484.383 356.43 510.49 356.43C545.497 356.433 579.069 370.341 603.822 395.095C628.574 419.85 642.48 453.423 642.48 488.43H642.49ZM589.68 470.74C589.68 463.381 588.229 456.094 585.411 449.296C582.593 442.498 578.463 436.322 573.257 431.121C568.05 425.92 561.87 421.796 555.069 418.985C548.267 416.175 540.979 414.732 533.62 414.74H471.12C465.478 414.737 460.066 416.975 456.073 420.962C452.081 424.949 449.835 430.358 449.83 436V551.42C449.83 557.064 452.072 562.476 456.063 566.467C460.053 570.458 465.466 572.7 471.11 572.7C476.754 572.7 482.166 570.458 486.157 566.467C490.148 562.476 492.39 557.064 492.39 551.42V526.86H533.61V526.78C540.97 526.781 548.259 525.333 555.06 522.517C561.861 519.702 568.041 515.574 573.246 510.37C578.452 505.167 582.582 498.988 585.4 492.189C588.217 485.389 589.669 478.101 589.67 470.74H589.68ZM805.06 583.1C805.049 607.713 795.391 631.342 778.157 648.916C760.924 666.49 737.489 676.608 712.88 677.1V677.26H358.36C322.912 677.269 288.793 663.769 262.947 639.508C237.102 615.248 221.473 582.05 219.241 546.672C217.01 511.294 228.344 476.396 250.937 449.08C273.529 421.765 305.682 404.085 340.85 399.64C329.617 424.11 323.791 450.715 323.77 477.64C323.77 479.16 323.91 480.64 323.95 482.17C327.53 381.33 410.35 300.68 512.05 300.68C614.05 300.68 697.05 381.79 700.16 483.01C700.23 481.22 700.32 479.44 700.32 477.64C700.369 450.799 694.589 424.268 683.38 399.88C701.71 397.55 720.275 401.757 735.809 411.763C751.342 421.769 762.851 436.932 768.309 454.585C773.767 472.238 772.826 491.25 765.651 508.278C758.476 525.305 745.526 539.257 729.08 547.68C746.835 540.398 761.341 526.916 769.9 509.74C780.885 518.55 789.749 529.717 795.835 542.416C801.921 555.114 805.074 569.018 805.06 583.1ZM662.06 488.65C662.058 458.679 653.168 429.381 636.515 404.463C619.862 379.544 596.193 360.124 568.502 348.658C540.811 337.192 510.341 334.194 480.947 340.046C451.553 345.897 424.554 360.333 403.364 381.53C382.175 402.726 367.747 429.73 361.906 459.126C356.064 488.522 359.071 518.991 370.547 546.678C382.022 574.365 401.45 598.028 426.374 614.673C451.298 631.318 480.599 640.198 510.57 640.19C530.469 640.19 550.173 636.27 568.556 628.655C586.94 621.04 603.644 609.878 617.714 595.807C631.784 581.736 642.945 565.032 650.559 546.647C658.173 528.263 662.091 508.559 662.09 488.66L662.06 488.65Z" fill="white"/>
</g>
<defs>
<clipPath id="clip0_2_3105">
<rect width="1024" height="1024" fill="white"/>
</clipPath>
</defs>
</svg>
